X:266
T:Peat Fire Flame
M:2/4
L:1/8
K:Em
E>F GF | ED B2 | BA AG/2A/2 | BA A2 | 
E>F GF | ED B2 | GEFD | E2 E2 :| 
G>A B g/2f/2 | ed B2 | BA A G/2A/2 | 
BA A2 | G>A B g/2f/2 | ed B2 | GE FD | E2 E2 :| 

